abel/img/leafs2.svg

<svg width="83" height="176" viewBox="0 0 83 176" fill="none" xmlns="http://www.w3.org/2000/svg">
<g filter="url(#filter0_d)">
<path d="M43.6899 28.4881C43.0597 29.8446 37.5174 31.6148 31.717 30.0459C25.759 28.4355 19.9279 21.9393 19.9279 21.9393C19.9279 21.9393 28.238 19.2655 34.196 20.8759C34.9049 21.0685 35.581 21.3048 36.2287 21.5695C35.918 20.9306 35.6335 20.2611 35.3928 19.5543C33.4039 13.7101 35.5394 5.24683 35.5394 5.24683C35.5394 5.24683 42.3945 10.6491 44.3856 16.4911C46.2761 22.0509 44.9742 27.5669 43.6899 28.4881Z" fill="white"/>
<path d="M14.956 12.1239C9.35688 8.54871 5.46438 9.06395e-05 5.46438 9.06395e-05C5.46438 9.06395e-05 14.8576 -0.0677368 20.4567 3.5075C26.0559 7.08274 28.6662 13.0035 27.8457 14.2879C27.0252 15.5723 20.5552 15.697 14.956 12.1239Z" fill="white"/>
<path d="M59.0323 50.5829C58.0936 51.9526 51.7068 52.8759 45.6437 50.1015C39.4166 47.2505 34.2222 39.076 34.2222 39.076C34.2222 39.076 43.8036 37.6669 50.0329 40.5179C50.7747 40.8571 51.4705 41.2422 52.1312 41.6491C51.9081 40.8921 51.7199 40.1066 51.5842 39.2905C50.4749 32.5316 54.3565 23.6592 54.3565 23.6592C54.3565 23.6592 60.8746 30.8228 61.9839 37.5816C63.0408 44.0078 60.6077 49.8083 59.0323 50.5829Z" fill="white"/>
<path d="M67.8524 77.5109C66.3361 78.7866 58.6955 77.8085 52.6106 72.6798C46.3616 67.411 42.9986 56.3527 42.9986 56.3527C42.9986 56.3527 54.4683 57.7946 60.7173 63.0634C61.459 63.687 62.1373 64.3478 62.7653 65.0239C62.7499 64.0874 62.7871 63.1247 62.8944 62.1466C63.7761 54.0203 71.0776 45.0581 71.0776 45.0581C71.0776 45.0581 76.2829 55.379 75.3989 63.5054C74.5609 71.2335 69.9114 77.1259 67.8524 77.5109Z" fill="white"/>
<path d="M66.2133 103.529C65.9727 103.419 65.7429 103.157 65.5351 102.794C62.8766 102.463 57.2315 99.225 53.6978 93.523C49.5034 86.7554 49.9257 75.6293 49.9257 75.6293C49.9257 75.6293 60.2991 80.5633 64.4936 87.3309C65.0646 88.252 65.5416 89.1885 65.953 90.1228C66.2068 89.4314 66.4868 88.74 66.8238 88.0507C70.3028 80.9353 80.1226 75.0845 80.1226 75.0845C80.1226 75.0845 81.6849 86.1187 78.2037 93.2364C74.7248 100.352 67.9113 104.301 66.2133 103.529Z" fill="white"/>
<path d="M55.6525 129.118C55.4753 128.936 55.3615 128.617 55.3024 128.21C53.0378 127.017 49.1103 122.129 47.9331 115.657C46.535 107.975 50.7885 97.7854 50.7885 97.7854C50.7885 97.7854 58.3591 105.824 59.7551 113.506C59.9454 114.552 60.0483 115.581 60.0898 116.585C60.5581 116.029 61.0504 115.48 61.5908 114.953C67.1856 109.504 78.0142 107.345 78.0142 107.345C78.0142 107.345 75.5679 118.112 69.9753 123.56C64.3806 129.006 56.9041 130.402 55.6525 129.118Z" fill="white"/>
<path d="M40.848 147.996C39.0538 146.638 36.5441 142.025 36.8767 136.647C37.2705 130.284 43.3226 123 43.3226 123C43.3226 123 48.4382 130.816 48.0444 137.179C47.9897 138.056 47.8497 138.898 47.6659 139.715C48.2194 139.354 48.7774 138.995 49.3922 138.673C55.6347 135.409 65.9053 135.746 65.9053 135.746C65.9053 135.746 61.3651 143.83 55.1227 147.095C48.8802 150.359 41.8107 150.051 40.9552 148.795C40.8327 148.618 40.813 148.333 40.848 147.996Z" fill="white"/>
<path d="M20.1531 162.717C20.1203 162.534 20.1947 162.286 20.3282 162.015C19.4376 160.37 19.0569 155.788 21.0174 151.355C23.3367 146.112 30.124 141.675 30.124 141.675C30.124 141.675 31.4062 149.681 29.0847 154.924C28.7652 155.648 28.3932 156.317 27.9972 156.952C28.5201 156.803 29.0475 156.656 29.6032 156.558C35.2483 155.556 42.7183 158.711 42.7183 158.711C42.7183 158.711 36.7909 164.242 31.1458 165.244C25.5007 166.247 20.3829 164.013 20.1531 162.717Z" fill="white"/>
<path d="M0.371382 167.725C-0.00495911 166.023 0.935896 161.842 4.0604 158.42C7.75817 154.372 15.471 152.232 15.471 152.232C15.471 152.232 14.4098 159.7 10.712 163.75C10.2022 164.308 9.65738 164.807 9.10162 165.266C9.63988 165.273 10.1825 165.284 10.7405 165.345C16.3921 165.957 22.5908 170.758 22.5908 170.758C22.5908 170.758 15.3813 174.103 9.73178 173.489C4.0801 172.876 -0.147179 169.52 0.00379562 168.305C0.0256748 168.13 0.167896 167.931 0.371382 167.725Z" fill="white"/>
</g>
<defs>
<filter id="filter0_d" x="0" y="0" width="82.4722" height="175.564" filterUnits="userSpaceOnUse" color-interpolation-filters="sRGB">
<feFlood flood-opacity="0" result="BackgroundImageFix"/>
<feColorMatrix in="SourceAlpha" type="matrix" values="0 0 0 0 0 0 0 0 0 0 0 0 0 0 0 0 0 0 127 0" result="hardAlpha"/>
<feOffset dx="2" dy="2"/>
<feComposite in2="hardAlpha" operator="out"/>
<feColorMatrix type="matrix" values="0 0 0 0 0 0 0 0 0 0 0 0 0 0 0 0 0 0 1 0"/>
<feBlend mode="normal" in2="BackgroundImageFix" result="effect1_dropShadow"/>
<feBlend mode="normal" in="SourceGraphic" in2="effect1_dropShadow" result="shape"/>
</filter>
</defs>
</svg>

<svg width="83" height="176" fill="none" xmlns="http://www.w3.org/2000/svg"><g filter="url(#filter0_d)" fill="#fff"><path d="M43.69 28.488c-.63 1.357-6.173 3.127-11.973 1.558-5.958-1.61-11.79-8.107-11.79-8.107s8.311-2.674 14.269-1.063c.709.192 1.385.429 2.033.694a17.512 17.512 0 0 1-.836-2.016c-1.99-5.844.146-14.307.146-14.307s6.855 5.402 8.847 11.244c1.89 5.56.588 11.076-.696 11.997z"/><path d="M14.956 12.124C9.356 8.549 5.464 0 5.464 0s9.394-.068 14.993 3.507c5.599 3.576 8.21 9.497 7.389 10.78-.82 1.285-7.29 1.41-12.89-2.163zM59.032 50.583c-.938 1.37-7.325 2.293-13.388-.481-6.227-2.851-11.422-11.026-11.422-11.026s9.582-1.41 15.81 1.442c.743.34 1.439.724 2.1 1.131a19.856 19.856 0 0 1-.548-2.358c-1.11-6.76 2.772-15.632 2.772-15.632s6.519 7.164 7.628 13.923c1.057 6.426-1.376 12.226-2.952 13z"/><path d="M67.852 77.51c-1.516 1.277-9.157.298-15.241-4.83-6.25-5.269-9.612-16.327-9.612-16.327s11.47 1.442 17.718 6.71c.742.624 1.42 1.285 2.048 1.96-.015-.936.022-1.898.13-2.876.881-8.127 8.183-17.089 8.183-17.089s5.205 10.321 4.32 18.447c-.837 7.729-5.487 13.62-7.546 14.006z"/><path d="M66.213 103.529c-.24-.11-.47-.372-.678-.735-2.658-.331-8.303-3.569-11.837-9.271-4.195-6.768-3.772-17.894-3.772-17.894s10.373 4.934 14.568 11.702a22.443 22.443 0 0 1 1.459 2.792c.254-.692.534-1.383.87-2.072 3.48-7.116 13.3-12.966 13.3-12.966s1.562 11.034-1.92 18.151c-3.478 7.116-10.292 11.065-11.99 10.293z"/><path d="M55.653 129.118c-.178-.182-.291-.501-.35-.908-2.265-1.193-6.193-6.081-7.37-12.553-1.398-7.682 2.855-17.872 2.855-17.872s7.571 8.039 8.967 15.721c.19 1.046.293 2.075.335 3.079.468-.556.96-1.105 1.5-1.632 5.596-5.449 16.424-7.608 16.424-7.608s-2.446 10.767-8.039 16.215c-5.594 5.446-13.07 6.842-14.322 5.558zM40.848 147.996c-1.794-1.358-4.304-5.971-3.971-11.349.393-6.363 6.446-13.647 6.446-13.647s5.115 7.816 4.721 14.179a16.073 16.073 0 0 1-.378 2.536c.553-.361 1.111-.72 1.726-1.042 6.243-3.264 16.513-2.927 16.513-2.927s-4.54 8.084-10.782 11.349c-6.243 3.264-13.312 2.956-14.168 1.7-.122-.177-.142-.462-.107-.799zM20.153 162.717c-.033-.183.042-.431.175-.702-.89-1.645-1.271-6.227.69-10.66 2.319-5.243 9.106-9.68 9.106-9.68s1.282 8.006-1.04 13.249a16.14 16.14 0 0 1-1.087 2.028c.523-.149 1.05-.296 1.606-.394 5.645-1.002 13.115 2.153 13.115 2.153s-5.927 5.531-11.572 6.533c-5.645 1.003-10.763-1.231-10.993-2.527zM.371 167.725c-.376-1.702.565-5.883 3.69-9.305 3.697-4.048 11.41-6.188 11.41-6.188s-1.061 7.468-4.759 11.518a15.758 15.758 0 0 1-1.61 1.516c.538.007 1.08.018 1.639.079 5.651.612 11.85 5.413 11.85 5.413s-7.21 3.345-12.86 2.731c-5.65-.613-9.878-3.969-9.727-5.184.022-.175.164-.374.367-.58z"/></g><defs><filter id="filter0_d" x="0" y="0" width="82.472" height="175.564" filterUnits="userSpaceOnUse" color-interpolation-filters="sRGB"><feFlood flood-opacity="0" result="BackgroundImageFix"/><feColorMatrix in="SourceAlpha" values="0 0 0 0 0 0 0 0 0 0 0 0 0 0 0 0 0 0 127 0" result="hardAlpha"/><feOffset dx="2" dy="2"/><feComposite in2="hardAlpha" operator="out"/><feColorMatrix values="0 0 0 0 0 0 0 0 0 0 0 0 0 0 0 0 0 0 1 0"/><feBlend in2="BackgroundImageFix" result="effect1_dropShadow"/><feBlend in="SourceGraphic" in2="effect1_dropShadow" result="shape"/></filter></defs></svg>
